assets/1. P-Z/Tent/Color/Tent-color.svg

<svg width="100%" height="100%" viewBox="0 0 32 32" fill="none" xmlns="http://www.w3.org/2000/svg">
<g filter="url(#filter0_ii_18_7505)">
<path d="M28.6615 12.9951C28.8734 12.5647 28.5211 12.074 28.0435 12.1187C27.9047 12.1317 27.7642 12.1384 27.6221 12.1384C25.3444 12.0881 22.975 10.6002 23.0718 7.72639C23.0718 7.25288 23.1781 6.80161 23.3368 6.39648C23.5304 5.90222 23.0503 5.47004 22.6846 5.56592C20.3712 6.17228 18.7021 8.10551 18.7021 10.593C18.7021 13.5177 21.049 15.7976 23.9737 15.7976C26.0603 15.7976 27.768 14.811 28.6615 12.9951Z" fill="url(#paint0_linear_18_7505)"/>
<path d="M28.6615 12.9951C28.8734 12.5647 28.5211 12.074 28.0435 12.1187C27.9047 12.1317 27.7642 12.1384 27.6221 12.1384C25.3444 12.0881 22.975 10.6002 23.0718 7.72639C23.0718 7.25288 23.1781 6.80161 23.3368 6.39648C23.5304 5.90222 23.0503 5.47004 22.6846 5.56592C20.3712 6.17228 18.7021 8.10551 18.7021 10.593C18.7021 13.5177 21.049 15.7976 23.9737 15.7976C26.0603 15.7976 27.768 14.811 28.6615 12.9951Z" fill="url(#paint1_radial_18_7505)"/>
</g>
<path d="M28.6615 12.9951C28.8734 12.5647 28.5211 12.074 28.0435 12.1187C27.9047 12.1317 27.7642 12.1384 27.6221 12.1384C25.3444 12.0881 22.975 10.6002 23.0718 7.72639C23.0718 7.25288 23.1781 6.80161 23.3368 6.39648C23.5304 5.90222 23.0503 5.47004 22.6846 5.56592C20.3712 6.17228 18.7021 8.10551 18.7021 10.593C18.7021 13.5177 21.049 15.7976 23.9737 15.7976C26.0603 15.7976 27.768 14.811 28.6615 12.9951Z" fill="url(#paint2_linear_18_7505)"/>
<path d="M28.6615 12.9951C28.8734 12.5647 28.5211 12.074 28.0435 12.1187C27.9047 12.1317 27.7642 12.1384 27.6221 12.1384C25.3444 12.0881 22.975 10.6002 23.0718 7.72639C23.0718 7.25288 23.1781 6.80161 23.3368 6.39648C23.5304 5.90222 23.0503 5.47004 22.6846 5.56592C20.3712 6.17228 18.7021 8.10551 18.7021 10.593C18.7021 13.5177 21.049 15.7976 23.9737 15.7976C26.0603 15.7976 27.768 14.811 28.6615 12.9951Z" fill="url(#paint3_radial_18_7505)"/>
<path d="M28.6615 12.9951C28.8734 12.5647 28.5211 12.074 28.0435 12.1187C27.9047 12.1317 27.7642 12.1384 27.6221 12.1384C25.3444 12.0881 22.975 10.6002 23.0718 7.72639C23.0718 7.25288 23.1781 6.80161 23.3368 6.39648C23.5304 5.90222 23.0503 5.47004 22.6846 5.56592C20.3712 6.17228 18.7021 8.10551 18.7021 10.593C18.7021 13.5177 21.049 15.7976 23.9737 15.7976C26.0603 15.7976 27.768 14.811 28.6615 12.9951Z" fill="url(#paint4_linear_18_7505)"/>
<path d="M28.6615 12.9951C28.8734 12.5647 28.5211 12.074 28.0435 12.1187C27.9047 12.1317 27.7642 12.1384 27.6221 12.1384C25.3444 12.0881 22.975 10.6002 23.0718 7.72639C23.0718 7.25288 23.1781 6.80161 23.3368 6.39648C23.5304 5.90222 23.0503 5.47004 22.6846 5.56592C20.3712 6.17228 18.7021 8.10551 18.7021 10.593C18.7021 13.5177 21.049 15.7976 23.9737 15.7976C26.0603 15.7976 27.768 14.811 28.6615 12.9951Z" fill="url(#paint5_radial_18_7505)"/>
<path d="M2.05966 28.5256L7.78191 13.4507L16.3203 29.8814H2.99422C2.29389 29.8814 1.82883 29.4738 2.05966 28.5256Z" fill="url(#paint6_linear_18_7505)"/>
<path d="M7.80536 13.3843L2.05966 28.5256C1.82883 29.4738 2.29389 29.8814 2.99422 29.8814H3.33797C2.63764 29.8814 2.17258 29.4738 2.40341 28.5256L8.02802 13.6929L7.80536 13.3843Z" fill="url(#paint7_linear_18_7505)"/>
<path d="M7.80536 13.3843L2.05966 28.5256C1.82883 29.4738 2.29389 29.8814 2.99422 29.8814H3.33797C2.63764 29.8814 2.17258 29.4738 2.40341 28.5256L8.02802 13.6929L7.80536 13.3843Z" fill="url(#paint8_linear_18_7505)"/>
<path d="M4.36121 29.8814H16.3203L9.39114 16.5474L4.36121 29.8814Z" fill="url(#paint9_linear_18_7505)"/>
<path d="M4.36121 29.8814H16.3203L9.39114 16.5474L4.36121 29.8814Z" fill="url(#paint10_linear_18_7505)"/>
<path d="M9.49509 16.7476L9.33887 29.8805H16.3203L9.49509 16.7476Z" fill="url(#paint11_linear_18_7505)"/>
<g filter="url(#filter1_i_18_7505)">
<path d="M29.3393 29.8814H14.9628C14.1111 29.8814 13.3528 29.3421 13.0734 28.5375L7.81165 13.3843H23.2193C23.637 13.3843 24.0106 13.6438 24.1564 14.0352L29.8079 29.2069C29.9296 29.5336 29.688 29.8814 29.3393 29.8814Z" fill="url(#paint12_linear_18_7505)"/>
</g>
<g filter="url(#filter2_ii_18_7505)">
<path d="M17.1281 20.2436L16.3703 18.2866C16.2018 17.8353 16.4748 17.2166 16.9564 17.2057L19.0618 17.1582C19.9073 17.1391 20.6734 17.6539 20.9752 18.4439L21.8 20.6967C22.0812 21.478 21.5969 21.8295 21.0734 21.8295H18.9397C18.1886 21.8295 17.4172 21.0639 17.1281 20.2436Z" fill="url(#paint13_linear_18_7505)"/>
</g>
<defs>
<filter id="filter0_ii_18_7505" x="18.4521" y="5.30249" width="10.5224" height="10.7451" filterUnits="userSpaceOnUse" color-interpolation-filters="sRGB">
<feFlood flood-opacity="0" result="BackgroundImageFix"/>
<feBlend mode="normal" in="SourceGraphic" in2="BackgroundImageFix" result="shape"/>
<feColorMatrix in="SourceAlpha" type="matrix" values="0 0 0 0 0 0 0 0 0 0 0 0 0 0 0 0 0 0 127 0" result="hardAlpha"/>
<feOffset dx="-0.25" dy="0.25"/>
<feGaussianBlur stdDeviation="0.25"/>
<feComposite in2="hardAlpha" operator="arithmetic" k2="-1" k3="1"/>
<feColorMatrix type="matrix" values="0 0 0 0 1 0 0 0 0 0.792157 0 0 0 0 0.345098 0 0 0 1 0"/>
<feBlend mode="normal" in2="shape" result="effect1_innerShadow_18_7505"/>
<feColorMatrix in="SourceAlpha" type="matrix" values="0 0 0 0 0 0 0 0 0 0 0 0 0 0 0 0 0 0 127 0" result="hardAlpha"/>
<feOffset dx="0.25" dy="-0.25"/>
<feGaussianBlur stdDeviation="0.375"/>
<feComposite in2="hardAlpha" operator="arithmetic" k2="-1" k3="1"/>
<feColorMatrix type="matrix" values="0 0 0 0 0.772549 0 0 0 0 0.4 0 0 0 0 0.247059 0 0 0 1 0"/>
<feBlend mode="normal" in2="effect1_innerShadow_18_7505" result="effect2_innerShadow_18_7505"/>
</filter>
<filter id="filter1_i_18_7505" x="7.81165" y="13.3843" width="22.3281" height="16.4971" filterUnits="userSpaceOnUse" color-interpolation-filters="sRGB">
<feFlood flood-opacity="0" result="BackgroundImageFix"/>
<feBlend mode="normal" in="SourceGraphic" in2="BackgroundImageFix" result="shape"/>
<feColorMatrix in="SourceAlpha" type="matrix" values="0 0 0 0 0 0 0 0 0 0 0 0 0 0 0 0 0 0 127 0" result="hardAlpha"/>
<feOffset dx="0.5"/>
<feGaussianBlur stdDeviation="0.15"/>
<feComposite in2="hardAlpha" operator="arithmetic" k2="-1" k3="1"/>
<feColorMatrix type="matrix" values="0 0 0 0 0.168627 0 0 0 0 0.6 0 0 0 0 0.145098 0 0 0 1 0"/>
<feBlend mode="normal" in2="shape" result="effect1_innerShadow_18_7505"/>
</filter>
<filter id="filter2_ii_18_7505" x="16.1703" y="17.1077" width="5.86238" height="4.77188" filterUnits="userSpaceOnUse" color-interpolation-filters="sRGB">
<feFlood flood-opacity="0" result="BackgroundImageFix"/>
<feBlend mode="normal" in="SourceGraphic" in2="BackgroundImageFix" result="shape"/>
<feColorMatrix in="SourceAlpha" type="matrix" values="0 0 0 0 0 0 0 0 0 0 0 0 0 0 0 0 0 0 127 0" result="hardAlpha"/>
<feOffset dx="0.15" dy="0.05"/>
<feGaussianBlur stdDeviation="0.25"/>
<feComposite in2="hardAlpha" operator="arithmetic" k2="-1" k3="1"/>
<feColorMatrix type="matrix" values="0 0 0 0 0.266667 0 0 0 0 0.619608 0 0 0 0 0.184314 0 0 0 1 0"/>
<feBlend mode="normal" in2="shape" result="effect1_innerShadow_18_7505"/>
<feColorMatrix in="SourceAlpha" type="matrix" values="0 0 0 0 0 0 0 0 0 0 0 0 0 0 0 0 0 0 127 0" result="hardAlpha"/>
<feOffset dx="-0.15" dy="-0.05"/>
<feGaussianBlur stdDeviation="0.25"/>
<feComposite in2="hardAlpha" operator="arithmetic" k2="-1" k3="1"/>
<feColorMatrix type="matrix" values="0 0 0 0 0.266667 0 0 0 0 0.619608 0 0 0 0 0.184314 0 0 0 1 0"/>
<feBlend mode="normal" in2="effect1_innerShadow_18_7505" result="effect2_innerShadow_18_7505"/>
</filter>
<linearGradient id="paint0_linear_18_7505" x1="23.7133" y1="6.30491" x2="23.7133" y2="16.5903" gradientUnits="userSpaceOnUse">
<stop stop-color="#FFBD2A"/>
<stop offset="1" stop-color="#FF6E30"/>
</linearGradient>
<radialGradient id="paint1_radial_18_7505" cx="0" cy="0" r="1" gradientUnits="userSpaceOnUse" gradientTransform="translate(23.4226 5.92338) rotate(155.323) scale(0.808908 0.804029)">
<stop stop-color="#FFDF59"/>
<stop offset="1" stop-color="#FFDF59" stop-opacity="0"/>
</radialGradient>
<linearGradient id="paint2_linear_18_7505" x1="28.7245" y1="11.4951" x2="24.4081" y2="13.3097" gradientUnits="userSpaceOnUse">
<stop stop-color="#FF8B32"/>
<stop offset="1" stop-color="#FF8B32" stop-opacity="0"/>
</linearGradient>
<radialGradient id="paint3_radial_18_7505" cx="0" cy="0" r="1" gradientUnits="userSpaceOnUse" gradientTransform="translate(28.7245 12.4173) rotate(145.144) scale(0.70538 0.611319)">
<stop stop-color="#FFAB5C"/>
<stop offset="1" stop-color="#FFAB5C" stop-opacity="0"/>
</radialGradient>
<linearGradient id="paint4_linear_18_7505" x1="23.7133" y1="5.17177" x2="21.8807" y2="9.39925" gradientUnits="userSpaceOnUse">
<stop stop-color="#FFC81C"/>
<stop offset="1" stop-color="#FFC81C" stop-opacity="0"/>
</linearGradient>
<radialGradient id="paint5_radial_18_7505" cx="0" cy="0" r="1" gradientUnits="userSpaceOnUse" gradientTransform="translate(23.2426 5.69476) rotate(137.121) scale(0.832638 0.60737)">
<stop stop-color="#FFDE55"/>
<stop offset="1" stop-color="#FFDE55" stop-opacity="0"/>
</radialGradient>
<linearGradient id="paint6_linear_18_7505" x1="10.4655" y1="15.6265" x2="3.90301" y2="29.2515" gradientUnits="userSpaceOnUse">
<stop stop-color="#104803"/>
<stop offset="1" stop-color="#1A680B"/>
</linearGradient>
<linearGradient id="paint7_linear_18_7505" x1="6.88739" y1="13.3843" x2="-0.880171" y2="28.2559" gradientUnits="userSpaceOnUse">
<stop stop-color="#2B9A25"/>
<stop offset="1" stop-color="#2C8127"/>
</linearGradient>
<linearGradient id="paint8_linear_18_7505" x1="2.75069" y1="30.2202" x2="2.75069" y2="28.939" gradientUnits="userSpaceOnUse">
<stop stop-color="#54A193"/>
<stop offset="1" stop-color="#54A193" stop-opacity="0"/>
</linearGradient>
<linearGradient id="paint9_linear_18_7505" x1="7.22655" y1="29.3352" x2="11.0408" y2="16.5474" gradientUnits="userSpaceOnUse">
<stop stop-color="#287A1F"/>
<stop offset="1" stop-color="#0B7F0C"/>
</linearGradient>
<linearGradient id="paint10_linear_18_7505" x1="5.77802" y1="25.1577" x2="6.46552" y2="25.3765" gradientUnits="userSpaceOnUse">
<stop stop-color="#117605"/>
<stop offset="1" stop-color="#117605" stop-opacity="0"/>
</linearGradient>
<linearGradient id="paint11_linear_18_7505" x1="10.4967" y1="23.876" x2="12.8292" y2="29.8806" gradientUnits="userSpaceOnUse">
<stop stop-color="#1C361B"/>
<stop offset="1" stop-color="#233B24"/>
</linearGradient>
<linearGradient id="paint12_linear_18_7505" x1="15.1608" y1="13.7518" x2="21.0468" y2="29.8763" gradientUnits="userSpaceOnUse">
<stop stop-color="#4DD84E"/>
<stop offset="1" stop-color="#56BE4D"/>
</linearGradient>
<linearGradient id="paint13_linear_18_7505" x1="16.778" y1="18.5639" x2="21.2155" y2="21.2514" gradientUnits="userSpaceOnUse">
<stop stop-color="#5DA74C"/>
<stop offset="1" stop-color="#64A858"/>
</linearGradient>
</defs>
</svg>

<svg width="100%" height="100%" viewBox="0 0 32 32" xmlns="http://www.w3.org/2000/svg"><g filter="url(#a)"><path fill="url(#b)" d="M28.662 12.995c.211-.43-.14-.921-.618-.876q-.21.02-.422.02c-2.278-.05-4.647-1.539-4.55-4.413 0-.473.106-.924.265-1.33.193-.494-.287-.926-.652-.83-2.314.606-3.983 2.54-3.983 5.027 0 2.925 2.347 5.205 5.272 5.205 2.086 0 3.794-.987 4.688-2.803"/><path fill="url(#c)" d="M28.662 12.995c.211-.43-.14-.921-.618-.876q-.21.02-.422.02c-2.278-.05-4.647-1.539-4.55-4.413 0-.473.106-.924.265-1.33.193-.494-.287-.926-.652-.83-2.314.606-3.983 2.54-3.983 5.027 0 2.925 2.347 5.205 5.272 5.205 2.086 0 3.794-.987 4.688-2.803"/></g><path fill="url(#d)" d="M28.662 12.995c.211-.43-.14-.921-.618-.876q-.21.02-.422.02c-2.278-.05-4.647-1.539-4.55-4.413 0-.473.106-.924.265-1.33.193-.494-.287-.926-.652-.83-2.314.606-3.983 2.54-3.983 5.027 0 2.925 2.347 5.205 5.272 5.205 2.086 0 3.794-.987 4.688-2.803"/><path fill="url(#e)" d="M28.662 12.995c.211-.43-.14-.921-.618-.876q-.21.02-.422.02c-2.278-.05-4.647-1.539-4.55-4.413 0-.473.106-.924.265-1.33.193-.494-.287-.926-.652-.83-2.314.606-3.983 2.54-3.983 5.027 0 2.925 2.347 5.205 5.272 5.205 2.086 0 3.794-.987 4.688-2.803"/><path fill="url(#f)" d="M28.662 12.995c.211-.43-.14-.921-.618-.876q-.21.02-.422.02c-2.278-.05-4.647-1.539-4.55-4.413 0-.473.106-.924.265-1.33.193-.494-.287-.926-.652-.83-2.314.606-3.983 2.54-3.983 5.027 0 2.925 2.347 5.205 5.272 5.205 2.086 0 3.794-.987 4.688-2.803"/><path fill="url(#g)" d="M28.662 12.995c.211-.43-.14-.921-.618-.876q-.21.02-.422.02c-2.278-.05-4.647-1.539-4.55-4.413 0-.473.106-.924.265-1.33.193-.494-.287-.926-.652-.83-2.314.606-3.983 2.54-3.983 5.027 0 2.925 2.347 5.205 5.272 5.205 2.086 0 3.794-.987 4.688-2.803"/><path fill="url(#h)" d="M2.06 28.526 7.782 13.45l8.538 16.43H2.994c-.7 0-1.165-.407-.934-1.355"/><path fill="url(#i)" d="M7.805 13.384 2.06 28.526c-.231.948.234 1.355.934 1.355h.344c-.7 0-1.165-.407-.935-1.355l5.625-14.833z"/><path fill="url(#j)" d="M7.805 13.384 2.06 28.526c-.231.948.234 1.355.934 1.355h.344c-.7 0-1.165-.407-.935-1.355l5.625-14.833z"/><path fill="url(#k)" d="M4.361 29.881h11.96L9.39 16.547z"/><path fill="url(#l)" d="M4.361 29.881h11.96L9.39 16.547z"/><path fill="url(#m)" d="M9.495 16.748 9.34 29.88h6.981z"/><g filter="url(#n)"><path fill="url(#o)" d="M29.34 29.881H14.962a2 2 0 0 1-1.89-1.343L7.812 13.384h15.407a1 1 0 0 1 .937.651l5.652 15.172a.5.5 0 0 1-.469.674"/></g><g filter="url(#p)"><path fill="url(#q)" d="m17.128 20.244-.758-1.957c-.168-.452.105-1.07.586-1.081l2.106-.048a2 2 0 0 1 1.913 1.286l.825 2.253c.281.781-.203 1.133-.727 1.133H18.94c-.751 0-1.523-.766-1.812-1.586"/></g><defs><linearGradient id="b" x1="23.713" x2="23.713" y1="6.305" y2="16.59" gradientUnits="userSpaceOnUse"><stop stop-color="#FFBD2A"/><stop offset="1" stop-color="#FF6E30"/></linearGradient><linearGradient id="d" x1="28.724" x2="24.408" y1="11.495" y2="13.31" gradientUnits="userSpaceOnUse"><stop stop-color="#FF8B32"/><stop offset="1" stop-color="#FF8B32" stop-opacity="0"/></linearGradient><linearGradient id="f" x1="23.713" x2="21.881" y1="5.172" y2="9.399" gradientUnits="userSpaceOnUse"><stop stop-color="#FFC81C"/><stop offset="1" stop-color="#FFC81C" stop-opacity="0"/></linearGradient><linearGradient id="h" x1="10.466" x2="3.903" y1="15.627" y2="29.252" gradientUnits="userSpaceOnUse"><stop stop-color="#104803"/><stop offset="1" stop-color="#1A680B"/></linearGradient><linearGradient id="i" x1="6.887" x2="-.88" y1="13.384" y2="28.256" gradientUnits="userSpaceOnUse"><stop stop-color="#2B9A25"/><stop offset="1" stop-color="#2C8127"/></linearGradient><linearGradient id="j" x1="2.751" x2="2.751" y1="30.22" y2="28.939" gradientUnits="userSpaceOnUse"><stop stop-color="#54A193"/><stop offset="1" stop-color="#54A193" stop-opacity="0"/></linearGradient><linearGradient id="k" x1="7.227" x2="11.041" y1="29.335" y2="16.547" gradientUnits="userSpaceOnUse"><stop stop-color="#287A1F"/><stop offset="1" stop-color="#0B7F0C"/></linearGradient><linearGradient id="l" x1="5.778" x2="6.466" y1="25.158" y2="25.377" gradientUnits="userSpaceOnUse"><stop stop-color="#117605"/><stop offset="1" stop-color="#117605" stop-opacity="0"/></linearGradient><linearGradient id="m" x1="10.497" x2="12.829" y1="23.876" y2="29.881" gradientUnits="userSpaceOnUse"><stop stop-color="#1C361B"/><stop offset="1" stop-color="#233B24"/></linearGradient><linearGradient id="o" x1="15.161" x2="21.047" y1="13.752" y2="29.876" gradientUnits="userSpaceOnUse"><stop stop-color="#4DD84E"/><stop offset="1" stop-color="#56BE4D"/></linearGradient><linearGradient id="q" x1="16.778" x2="21.215" y1="18.564" y2="21.251" gradientUnits="userSpaceOnUse"><stop stop-color="#5DA74C"/><stop offset="1" stop-color="#64A858"/></linearGradient><radialGradient id="c" cx="0" cy="0" r="1" gradientTransform="rotate(155.323 11.063 5.523)scale(.80891 .80403)" gradientUnits="userSpaceOnUse"><stop stop-color="#FFDF59"/><stop offset="1" stop-color="#FFDF59" stop-opacity="0"/></radialGradient><radialGradient id="e" cx="0" cy="0" r="1" gradientTransform="matrix(-.57883 .40314 -.34938 -.50164 28.724 12.417)" gradientUnits="userSpaceOnUse"><stop stop-color="#FFAB5C"/><stop offset="1" stop-color="#FFAB5C" stop-opacity="0"/></radialGradient><radialGradient id="g" cx="0" cy="0" r="1" gradientTransform="rotate(137.121 10.503 7.411)scale(.83264 .60737)" gradientUnits="userSpaceOnUse"><stop stop-color="#FFDE55"/><stop offset="1" stop-color="#FFDE55" stop-opacity="0"/></radialGradient><filter id="a" width="10.522" height="10.745" x="18.452" y="5.302" color-interpolation-filters="sRGB" filterUnits="userSpaceOnUse"><feFlood flood-opacity="0" result="BackgroundImageFix"/><feBlend in="SourceGraphic" in2="BackgroundImageFix" result="shape"/><feColorMatrix in="SourceAlpha" result="hardAlpha" values="0 0 0 0 0 0 0 0 0 0 0 0 0 0 0 0 0 0 127 0"/><feOffset dx="-.25" dy=".25"/><feGaussianBlur stdDeviation=".25"/><feComposite in2="hardAlpha" k2="-1" k3="1" operator="arithmetic"/><feColorMatrix values="0 0 0 0 1 0 0 0 0 0.792157 0 0 0 0 0.345098 0 0 0 1 0"/><feBlend in2="shape" result="effect1_innerShadow_18_7505"/><feColorMatrix in="SourceAlpha" result="hardAlpha" values="0 0 0 0 0 0 0 0 0 0 0 0 0 0 0 0 0 0 127 0"/><feOffset dx=".25" dy="-.25"/><feGaussianBlur stdDeviation=".375"/><feComposite in2="hardAlpha" k2="-1" k3="1" operator="arithmetic"/><feColorMatrix values="0 0 0 0 0.772549 0 0 0 0 0.4 0 0 0 0 0.247059 0 0 0 1 0"/><feBlend in2="effect1_innerShadow_18_7505" result="effect2_innerShadow_18_7505"/></filter><filter id="n" width="22.328" height="16.497" x="7.812" y="13.384" color-interpolation-filters="sRGB" filterUnits="userSpaceOnUse"><feFlood flood-opacity="0" result="BackgroundImageFix"/><feBlend in="SourceGraphic" in2="BackgroundImageFix" result="shape"/><feColorMatrix in="SourceAlpha" result="hardAlpha" values="0 0 0 0 0 0 0 0 0 0 0 0 0 0 0 0 0 0 127 0"/><feOffset dx=".5"/><feGaussianBlur stdDeviation=".15"/><feComposite in2="hardAlpha" k2="-1" k3="1" operator="arithmetic"/><feColorMatrix values="0 0 0 0 0.168627 0 0 0 0 0.6 0 0 0 0 0.145098 0 0 0 1 0"/><feBlend in2="shape" result="effect1_innerShadow_18_7505"/></filter><filter id="p" width="5.862" height="4.772" x="16.17" y="17.108" color-interpolation-filters="sRGB" filterUnits="userSpaceOnUse"><feFlood flood-opacity="0" result="BackgroundImageFix"/><feBlend in="SourceGraphic" in2="BackgroundImageFix" result="shape"/><feColorMatrix in="SourceAlpha" result="hardAlpha" values="0 0 0 0 0 0 0 0 0 0 0 0 0 0 0 0 0 0 127 0"/><feOffset dx=".15" dy=".05"/><feGaussianBlur stdDeviation=".25"/><feComposite in2="hardAlpha" k2="-1" k3="1" operator="arithmetic"/><feColorMatrix values="0 0 0 0 0.266667 0 0 0 0 0.619608 0 0 0 0 0.184314 0 0 0 1 0"/><feBlend in2="shape" result="effect1_innerShadow_18_7505"/><feColorMatrix in="SourceAlpha" result="hardAlpha" values="0 0 0 0 0 0 0 0 0 0 0 0 0 0 0 0 0 0 127 0"/><feOffset dx="-.15" dy="-.05"/><feGaussianBlur stdDeviation=".25"/><feComposite in2="hardAlpha" k2="-1" k3="1" operator="arithmetic"/><feColorMatrix values="0 0 0 0 0.266667 0 0 0 0 0.619608 0 0 0 0 0.184314 0 0 0 1 0"/><feBlend in2="effect1_innerShadow_18_7505" result="effect2_innerShadow_18_7505"/></filter></defs></svg>
